to nextline :count :length
   make "c :count - 1
   line :c :length
   lt 60 line :c :length
   rt 120 line :c :length
   lt 60 line :c :length
end

to line :count :length
 print :count
 ifelse :count = 1 [fd :length] [nextline :count :length]
end

to koch :count :length
  rt 30 line :count :length
  rt 120 line :count :length
  rt 120 line :count :length
end
 
cs
pu
setxy  45 370
pd
koch 5 5