to nextline :count :length
   line :count :length
   lt 60 line :count :length
   rt 120 line :count :length
   lt 60 line :count :length
end

to line :count :length
 ifelse :count = 1 [fd :length] [nextline :count - 1 :length]
end

to koch :count :length
  rt 30 line :count :length
  rt 120 line :count :length
  rt 120 line :count :length
end
 
cs
pu
setxy -150 370
pd
koch 5 5